X:1
T:B  Major Samuel Holyoke, 1803
T:Isaac Watts, 1709 (Hymn 92, Book 2)       88. 88. (L. M.)
T:Malabar Treble-Tenor-Bass transcribed from The Columbian Repository, 1803.
%%score [ 1 2 3 4 ]
L:1/8
Q:1/4=170
M:2/2
K:Bb
V:1 treble nm="Tr." snm="Tr."
V:2 treble nm="A." snm="A."
V:3 treble-8 nm="T." snm="T."
V:4 bass nm="B." snm="B."
V:1
"^2. Lord, how our  souls  are all  on  fire      To  see thy bless'd a–bode!              tongues rejoice in tunes of praise,  Our tongues rejoice in tunes of praise,   Our  tongues rejoice  in tunes of praise""^1. O!  the delights, the  heav'nly    joys,     The   glories  of   the  place,              Jesus sheds the brightest beams, Where Jesus sheds the brightest beams, Where Jesus sheds the brightest beams" D4 F2 A2 | %1
 B2 F2 B2 B2 | A6 A2 | B2 c2 B2 A2 | B6"^Where""^Our" B,2 | F2 F2 F2 B2 | A2 c2 c2 d2 | %7
 c2 e2 e2 f2 | f2 g2 g2 c2 | d2 e2 c2 B2 | A2 B2 A2 z2 | z8 | %12
 z4 z2"^1. Of     his o'erflowing grace!  Where Jesus sheds the brightest beams  Of   his   o'erflowing grace!      Sweet  majesty and  awful   love     Sit   smiling  on  his    brow;                        And""^2. To    our in–car–nate God!    Our tongues rejoice in tunes of praise,   To  our   incarnate    God!       And while our faith enjoys this sight,  We long to leave our clay,                      And" F2 | %13
 B2 [Bd]2 [df]2 [Bd]2 | [Ac]6 c2 | d2 d2 d2 e2 | d2 c2 B2 A2 | B2 ec B2 A2 | B8 | d4 d2 B2 | %20
 c2 A2 B2 G2 | F6 A2 | B2 B2 B2 B2 | A6 z2 | %24
 z4 z2"^1. And all the glorious, all the glorious ranks above                                         At   humble  dis  – tance  bow.  And   all    the glorious ranks a–bove     At     hum        –        ble   distance  bow.""^2. And wish  thy  fiery,  wish thy fiery chariots, Lord,                                         To  fetch our souls a   –   way.  And  wish  thy fie – ry  chariots,  Lord,   To      fetch ______ our  souls a – way." f2 | %25
 g2 e2 c2 d2 | e2 c2 A2 B2 | c2 A2 B2 z2 | z8 | z4 z2 B2 | f2 f2 ed cB | A6 c2 | BA Bc d2 B2 | %33
 e2 e2 e2 dc | (BABc d2) [cg]2 | [Bf]4 [Ae]4 | [Bd]8 |] %37
V:2
"^1. O!  the delights, the  heav'nly    joys,     The   glories  of   the  place,""^2. Lord, how our  souls  are all  on  fire      To  see thy bless'd a–bode!" F4 F2 F2 | %1
 F2 F2 F2 F2 | A6 A2 | B2 G2 F2 F2 | D6 z2 | z8 | z8 | z4 z2"^1. Where""^2. Our" B,2 | %8
"^Jesus sheds  the  brightest beams  Of      his  o'erflowing""^tongues rejoice in tunes of praise,  To      our incarnate" F2 F2 F2 A2 | %9
 B2 G2 G2 F2 | G2 F2 F2 F2 | %11
"^grace!      Where Jesus sheds the brightest beams  Of his o'erflowing grace!                                                                                  Sweet majesty  and  awful   love     Sit   smiling  on  his   brow;""^God!         Our tongues rejoice in tunes of praise,   To  our incarnate God!                                                                                     And while our faith enjoys this sight,  We long to leave our clay," F6 B2 | %12
 B2 B2 B2 F2 | F2 F2 F2 F2 | F2 B2 A2 G2 | F6 z2 | z8 | z8 | z8 | B4 B2 G2 | G2 F2 F2 G2 | F6 F2 | %22
 G2 G2 G2 G2 | A6 z2 | z8 | z8 | z8 | z8 | z8 | %29
 z4 z2"^1. At   humble  dis  – tance  bow.  And   all    the glorious ranks a–bove     At     hum        –        ble   distance  bow.""^2.  To  fetch our souls a   –   way.  And  wish  thy fie – ry  chariots,  Lord,   To      fetch ______ our  souls a – way." B2 | %30
 F2 F2 F2 F2 | F6 F2 | F2 F2 F2 F2 | E2 E2 E2 D2 | F6 G2 | F4 F4 | F8 |] %37
V:3
"^1. O!  the delights, the  heav'nly    joys,     The   glories  of   the  place,                                          Jesus sheds the brightest beams, the brightest beams, Where Jesus sheds the brightest beams Of""^2. Lord, how our  souls  are all  on  fire      To  see thy bless'd a–bode!                                          tongues rejoice in tunes of praise,  in tunes of praise,  Our  tongues  rejoice  in tunes of praise  To" B4 B2 c2 | %1
 d2 d2 d2 =e2 | f6 f2 | f2 e2 d2 c2 | d6 z2 | z4 z2"^Our""^Where" B,2 | F2 F2 F2 B2 | A2 c2 c2 d2 | %8
 c2 e2 e2 f2 | f2 g2 g2 f2 | e2 d2 c2 F2 | %11
"^1. his o'erflowing grace! _______________________ Where Jesus sheds the brightest beams   Of his o'erflowing grace!   Sweet   majesty  and   awful  love   Sit  smiling  on  his   brow;    And""^2. our in–car–nate God! _______________________  Our tongues rejoice in tunes of praise,    To  our  incarnate  God!  And while our faith enjoys this sight,  We long to leave our clay,    And" B2 c2 d2 e2 | %12
 f8- | f8- | f6 A2 | B2 d2 f2 g2 | f2 e2 d2 c2 | f2 ge d2 c2 | B8 | f4 f2 d2 | e2 c2 d2 B2 | %21
 A6 d2 | d2 d2 d2 =e2 | f6 f2 | %24
"^1. all the glorious ranks above, And all the glorious ranks above           At  humble distance bow. ___________    And   all    the     glorious ranks a–bove  At      hum        –        ble  distance  bow.""^2. wish thy fiery chariots, Lord, And wish thy fiery chariots, Lord,          To  fetch our souls a–way. ___________   And  wish  thy    fie – ry  chariots,  Lord,  To      fetch _____   our  souls  a –way." g2 e2 c2 d2 | %25
 e2 c2 A2 f2 | c2 c2 c2 B2 | f2 f2 f2 z2 | z4 z2 B2 | f2 f2 e2 d2 | c8- | c6 F2 | Bc de f2 f2 | %33
 g2 g2 g2 f2 | (Bcde f2) e2 | d4 Tc4 | B8 |] %37
V:4
 B,,4 D,2 F,2 | B,2 B,2 G,2 C,2 | F,6 E,2 | D,2 E,2 F,2 F,2 | B,,6 z2 | z8 | %6
 z4 z2"^1.  Where Jesus sheds the brightest beams, Where Jesus sheds the brightest beams""^2.  Our  tongues rejoice in tunes of praise,  Our  tongues  rejoice  in tunes of praise" B,,2 | %7
 F,2 F,2 F,2 B,2 | A,2 C2 C2 A,2 | B,2 E,2 E,2 D,2 | C,2 B,,2 F,2 z2 | %11
 z4 z2"^1.  Of  his o'erflowing,  his  o'erflowing   grace!   Where Jesus sheds the brightest beams  Of    his  o'erflowing    grace!    Sweet   majesty  and  awful love    Sit  smiling  on  his   brow;""^2.  To our incarnate,   our  in–car–nate   God!     Our tongues rejoice in tunes of praise,   To    our  incarnate      God!   And while our faith enjoys this sight,  We long to leave our clay,""^_____________________________________________________________________\nEdited by B. C. Johnston, 2016: \nTenor \nand \nTreble\n parts exchanged. Originally written for \nTreble-Tenor-Bass.\nAppears as No. 362. NORWICH in The Sacred Harp (1991).  Alto part apparently written by D. P. White, 1850." F,2 | %12
 B,,2 D,2 F,2 A,2 | B,2 B,2 B,2 B,2 | F,6 F,2 | B,2 B,2 B,2 E,2 | F,2 F,2 F,2 F,E, | %17
 D,2 E,2 F,2 F,2 | B,,8 | B,4 B,2 B,2 | F,2 F,2 B,,2 C,2 | F,6 D,2 | G,2 G,2 G,2 C,2 | F,6 z2 | %24
 z8 | %25
 z4 z2"^1. And all the glorious ranks above At  humble distance  bow. __________________    And  all     the   glorious ranks a–bove   At      hum         –        ble  distance  bow.""^2. And wish thy fiery chariots, Lord, To  fetch our souls a–way. __________________   And  wish  thy   fie – ry chariots,  Lord,   To      fetch _____    our souls  a – way." B,2 | %26
 C2 A,2 F,2 G,2 | A,2 F,2 D,2 B,2 | C2 B,2 A,2 G,2 | F,8- | F,8- | F,6 A,2 | B,2 B,2 B,2 D,2 | %33
 E,2 E,2 E,F, G,A, | B,6 E,2 | F,4 F,4 | B,,8 |] %37

